!!!!SEGMENT: Any3003-Si_suave_e_linghanno.krn
!!!id: Any3003
!!!AGN: Madrigal
!!!voices: 4
!!!COM: Anonymous
!!!OTL: Sì suave è l'inghanno
**kern	**kern	**kern	**kern
*part4	*part3	*part2	*part1
*staff4	*staff3	*staff2	*staff1
*I"Bassus	*I"Tenor	*I"Altus	*I"Superius
*I'B	*I'T	*I'A	*I'S
*clefF4	*clefGv2	*clefGv2	*clefG2
*k[]	*k[]	*k[]	*k[]
*C:	*C:	*C:	*C:
*M2/1	*M2/1	*M2/1	*M2/1
*met(C)	*met(C)	*met(C)	*met(C)
0AA	0A	0c	0e
=1	=1	=1	=1
1E	1G#X	1B	1e
1F	1A	1A	1d
=2	=2	=2	=2
1E	1B	1G#X	1e
1AA	1c	1A	1e
=3	=3	=3	=3
0D	0d	0A	0f
=4	=4	=4	=4
1AA	1c#X	1A	1e
2r	2r	2r	2r
2D	2d	2A	2f
=5	=5	=5	=5
2AA	2c	2A	2e
2D	2d	2A	2f
1C	1e	1c	1g
=6	=6	=6	=6
1C	1c	2G	1e
.	.	1A	.
2D	2A	.	2.f
2D	2A	2F	.
.	.	.	4e
=7	=7	=7	=7
2GG	2B	2G	2d
2AA	1A	1E	2c
1BB	.	.	1d
.	2G#i	2D	.
=8	=8	=8	=8
1AA	1A	1E	1c
1r	1r	1r	1r
=9	=9	=9	=9
0AA	0A	0c	0e
=10	=10	=10	=10
1E	1G#X	1B	1e
1F	1A	1A	1d
=11	=11	=11	=11
1E	1B	1G#i	1e
1AA	1c	1A	1e
=12	=12	=12	=12
0D	0d	0A	0f
=13	=13	=13	=13
1AA	1c	1A	1e
2r	2r	2r	2r
2D	2d	2A	2f
=14	=14	=14	=14
2AA	2c	2A	2e
2D	2d	2A	2f
1C	1e	1c	1g
=15	=15	=15	=15
1C	1c	2G	1e
.	.	1A	.
2D	2A	.	2.f
2D	2A	2F	.
.	.	.	4e
=16	=16	=16	=16
2GG	2B	2G	2d
2AA	1A	1E	2c
1BB	.	.	1d
.	2G#i	2D	.
=17	=17	=17	=17
1AA	1A	1E	1c
1r	1r	1r	1r
=18	=18	=18	=18
0D	0f	0d	0a
=19	=19	=19	=19
1E	1e	1B	1g
1F	2d	1A	2a
.	[2c	.	[2a
=20	=20	=20	=20
1E	2c]	1e	2a]
.	4B	.	4g#i
.	4A	.	4f#i
1E	2B	1e	2g#i
.	2B	.	2g#i
=21	=21	=21	=21
1AA	1A	1c#X	1a
1AA	1A	1c#i	1a
=22	=22	=22	=22
2r	2r	2r	2r
2AA	2c	2e	2a
2D	2d	2f	2a
2E	2B	2e	2g
=23	=23	=23	=23
2F	2A	2c	2a
1D	1d	1f	2a
.	.	.	1A
[2AA	[2c	[2e	.
=24	=24	=24	=24
2AA]	4c]	2e]	1c
.	4B	.	.
2AA	2A	2e	.
2E	2G	2e	2B
2F	[2A	2d	2A
=25	=25	=25	=25
1E	2A]	1e	1B
.	2G#i	.	.
1AA	1A	1c	1A
=26	=26	=26	=26
2r	2r	2r	2r
2C	2e	2c	2g
2D	2d	2A	2f
2E	2c	2G	2e
=27	=27	=27	=27
2F	2c	2A	2e
2D	2B	2F	2d
2C	2c	2G	2e
2C	2c	2G	2e
=28	=28	=28	=28
2r	2r	2r	2r
2FF	2A	2c	2f
2C	2G	2c	2e
2D	2F	2A	2d
=29	=29	=29	=29
2AA	2E	2A	2c
2D	2F	2A	2d
1C	1G	1c	2e
.	.	.	2e
=30	=30	=30	=30
1FF	1A	1f	2d
.	.	.	2c
2GG	2.G	2e	1B
2GG	.	[2d	.
.	4F	.	.
=31	=31	=31	=31
1AA	1E	2d]	0A
.	.	2c#i	.
1D	1D	1d	.
=32	=32	=32	=32
2r	2r	2r	2r
2C	2c	2G	2e
2AA	2c	2A	2e
2AA	2c	2A	2f
=33	=33	=33	=33
1GG	1B	1d	1g
1C	1c	1G	1e
=34	=34	=34	=34
2D	2A	2F	2f
2C	2c	2.G	2e
2GG	2B	.	2d
.	.	4F	.
2AA	[2A	[2E	2c
=35	=35	=35	=35
1BB	2A]	2E]	1d
.	2G#i	2D	.
1AA	1A	1E	1c
=36	=36	=36	=36
1C	1e	2r	2r
.	.	2c	1g
2D	1d	2B	.
2D	.	2A	[2f
=37	=37	=37	=37
2E	2B	2A	2f]
2E	2.c	2G	2e
1F	.	1A	2e
.	4B	.	.
.	[2A	.	2d
=38	=38	=38	=38
1E	2A]	1B	0e
.	2G#i	.	.
2.AA	1A	2r	.
.	.	[2c	.
4BB	.	.	.
=39	=39	=39	=39
4C	1E	2c]	[0el
4D	.	.	.
2E	.	1B	.
2C	2r	.	.
2AA	[2c	2A	.
=40	=40	=40	=40
1E	2c]	2A	0e_
.	1B	2G#i	.
1AA	.	2A	.
.	2A	[2c	.
=41	=41	=41	=41
2.E	2A	2c]	0e_
.	2G	2B	.
4D	.	.	.
2C	[1A	[1c	.
2AA	.	.	.
=42	=42	=42	=42
[0El	2A]	2c]	0e_
.	4G	4B	.
.	4F	4A	.
.	2.G	1B	.
.	4A	.	.
=43	=43	=43	=43
00E]	00G#Xl	00Bl	00e]
==	==	==	==
*-	*-	*-	*-
!!!system-decoration: [*]
!!!RDF**kern: i = editorial accidental
!!!RDF**kern: l = terminal long
!!!ENC: Benjamin Ory
!!!END: 2024/4/29
!!!EED: Benjamin Ory
!!!EEV: 2024/04/29
!!!YEC: Copyright 2024 Benjamin Ory, All Rights Reserved
!!!ONB: Translated from MusicXML on 2024/04/29
